!!!OTL: Frisch auf, ihr Landsknecht alle! / Volksweise
!!!ARE: Europa, Mitteleuropa, Deutschland
!!!SCT: A0417D
!!!TXL: @@DE
!!!YEM: Copyright 1995, estate of Helmut Schaffrath.
**kern	**text
!! Mixed meters:  6/4; 4/4
*M6/4	*
*k[]	*
*D:	*
{4a	Friſch
=1	=1
2a	auf,
4a	ihr
2b/	Lands-
4a	-knecht
=2	=2
(4.g	al-
8a	.
4b/)	.
2g}	-le,
{4g	ſeid
=3	=3
2a	fröh-
4a	-lich,
2cc	gu-
4b	-ter
=4	=4
[2.a	Ding!
4a]	.
4r}	.
{4a	Wir
=5	=5
2a	lo-
4a	-ben
2b/	Gott
4a	den
=6	=6
(4.g	Her-
8a	.
4b/)	.
2g}	-ren,
{4g	dar-
=7	=7
2a	-ʒu
4g	den
2f	e-
4e	-deln
=8	=8
[2.d	Kön'g.
4d]	.
4r}	.
{4d	Er
=9	=9
2f	legt
4g	uns
2a	gwalt-
4g	-gen
=10	=10
2f	Haufn
4d	ins
2c}	Feld,
{4c	es
=11	=11
2f	ſoll
4g	kein
2a	Lands-
4a	-knecht
=12	=12
(4cc	trau-
4a)	-ren
4b/	um
2a}	Geld;
{4a	er
=13	=13
*M4/4	*
*met(c|)	*
4g	will
4f	uns
4g	ehr-
4a	-lich
=14	=14
2f	loh-
4d}	-nen
{4a	mit
=15	=15
4g	Stüvern
4f	und
4g	Son-
4a	-nen-
=16	=16
2f	-kro-
4d}	-nen,
{4a	mit
=17	=17
*M6/4	*
*met(3)	*
2cc	Stüvern
4b	und
2a	Son-
4f	-nen-
=18	=18
(2g	-kro-
4f	.
2.e)	.
=19	=19
[2.d	-nen.
4d]	.
4r}	.
==	==
!!!GTL: Landsknecht- und Reiterlieder
!!!AGN: Romanze, Ballade, Lied, Kriegslied
!! Der von Boehme aus den verschiedenen Versionen herausgeschaelte
!!    "volksthuemliche Kern" der Melodie.
!!!ONB: ESAC (Essen Associative Code) Database: ALTDEU
!!!AMT: irregular
!!!AIN: vox
!!!EED: Helmut Schaffrath
!!!EEV: 1.0
!!!URL-scan: https://rosdok.uni-rostock.de/mcrviewer/recordIdentifier/rosdok_ppn738218359/iview2/phys_0596.iview2?x=-495.6391625615763&y=519.7197044137865&scale=0.4629418472063854&rotation=0&layout=singlePageLayout&logicalDiv=log_0015
!!!ENC: Anna Maria Matuszewska
!!!EEV: 2024/15/03
*-	*-
